app/src/main/assets/symbols/shopping/car.svg

﻿<?xml version="1.0" encoding="UTF-8" standalone="no"?>
<!-- Created with Inkscape (http://www.inkscape.org/) -->

<svg
   xmlns:dc="http://purl.org/dc/elements/1.1/"
   xmlns:cc="http://creativecommons.org/ns#"
   xmlns:rdf="http://www.w3.org/1999/02/22-rdf-syntax-ns#"
   xmlns:svg="http://www.w3.org/2000/svg"
   xmlns="http://www.w3.org/2000/svg"
   version="1.1"
   width="14"
   height="14"
   viewBox="0 0 14 14"
   id="svg2">
  <metadata
     id="metadata8">
    <rdf:RDF>
      <cc:Work
         rdf:about="">
        <dc:format>image/svg+xml</dc:format>
        <dc:type
           rdf:resource="http://purl.org/dc/dcmitype/StillImage" />
        <dc:title></dc:title>
      </cc:Work>
    </rdf:RDF>
  </metadata>
  <defs
     id="defs6" />
  <rect
     width="14"
     height="14"
     x="0"
     y="0"
     id="canvas"
     style="fill:none;stroke:none;visibility:hidden" />
  <path
     d="M 3,1 1.760303,5 C 1,5 0,5.4966359 0,7 l 0,4 2,0 0,1 c 0,0 0,1 1,1 1,0 1,-1 1,-1 L 4,11 10,10.96875 10,12 c 0,0 0,1 1,1 1,0 1,-1 1,-1 l 0,-1 2,0 0,-4 C 14,5.4726661 13,5 12,5 L 11,1 z m 1,1.5 6,0 L 10.6,5 3.3,5 z M 3,7 C 3.552285,7 4,7.447715 4,8 4,8.552285 3.552285,9 3,9 2.447715,9 2,8.552285 2,8 2,7.447715 2.447715,7 3,7 z m 8,0 c 0.552285,0 1,0.447715 1,1 0,0.552285 -0.447715,1 -1,1 -0.552285,0 -1,-0.447715 -1,-1 0,-0.552285 0.447715,-1 1,-1 z"
     id="car"
     style="fill:#ac39ac;stroke:none" />
</svg>

<?xml version="1.0" encoding="UTF-8"?>
<svg version="1.1" viewBox="0 0 14 14" xmlns="http://www.w3.org/2000/svg" xmlns:cc="http://creativecommons.org/ns#" xmlns:dc="http://purl.org/dc/elements/1.1/" xmlns:rdf="http://www.w3.org/1999/02/22-rdf-syntax-ns#">
<metadata>
<rdf:RDF>
<cc:Work rdf:about="">
<dc:format>image/svg+xml</dc:format>
<dc:type rdf:resource="http://purl.org/dc/dcmitype/StillImage"/>
<dc:title/>
</cc:Work>
</rdf:RDF>
</metadata>
<rect width="14" height="14" fill="none" visibility="hidden"/>
<path d="m3 1-1.2397 4c-0.7603 0-1.7603 0.49664-1.7603 2v4h2v1s0 1 1 1 1-1 1-1v-1l6-0.03125v1.0312s0 1 1 1 1-1 1-1v-1h2v-4c0-1.5273-1-2-2-2l-1-4zm1 1.5h6l0.6 2.5h-7.3zm-1 4.5c0.55228 0 1 0.44772 1 1s-0.44772 1-1 1-1-0.44772-1-1 0.44772-1 1-1zm8 0c0.55228 0 1 0.44772 1 1s-0.44772 1-1 1-1-0.44772-1-1 0.44772-1 1-1z" fill="#ac39ac"/>
</svg>
